X: 1
T: Kashmir Cloak, The
M: 4/4
L: 1/8
R: reel
K: Ador
A3G EFGE|AGAB c2ed|cAAG EFGf|1gedB cABG:|2gedB cA A2||
ecc2 ecgd|BGG2 Bcdg|ecc2 eggf|gedB cAAg|
ag(3fga gedB|c2cG EGG2|A2A2 (3Bcd ef|g2fg gedB|
